Gruvbox-Material-Icons/apps/scalable/document-viewer.svg

<svg xmlns="http://www.w3.org/2000/svg" style="isolation:isolate" width="256" height="256" viewBox="0 0 256 256">
 <g filter="url(#oM6I8KRSICfyBQ6AweqNGEFP5eDRCQ6v)">
  <linearGradient id="_lgradient_156" x1=".233" x2=".933" y1="-.071" y2=".858" gradientTransform="matrix(244.648,0,0,228.338,5.676,11.947)" gradientUnits="userSpaceOnUse">
   <stop offset="0%" style="stop-color:#ebdbb2"/>
   <stop offset="100%" style="stop-color:#ebdbb2"/>
  </linearGradient>
  <path fill="url(#_lgradient_156)" d="M 165.685 11.947 C 239.74 11.947 250.324 22.504 250.324 96.491 L 250.324 155.742 C 250.324 229.728 239.74 240.285 165.685 240.285 L 90.315 240.285 C 16.26 240.285 5.676 229.728 5.676 155.742 L 5.676 96.491 C 5.676 22.504 16.26 11.947 90.315 11.947 L 165.685 11.947 L 165.685 11.947 L 165.685 11.947 Z"/>
 </g>
 <defs>
  <filter id="oM6I8KRSICfyBQ6AweqNGEFP5eDRCQ6v" width="400%" height="400%" x="-200%" y="-200%" color-interpolation-filters="sRGB" filterUnits="objectBoundingBox">
   <feGaussianBlur xmlns="http://www.w3.org/2000/svg" in="SourceGraphic" stdDeviation="4.294"/>
   <feOffset xmlns="http://www.w3.org/2000/svg" dx="0" dy="4" result="pf_100_offsetBlur"/>
   <feFlood xmlns="http://www.w3.org/2000/svg" flood-opacity=".4"/>
   <feComposite xmlns="http://www.w3.org/2000/svg" in2="pf_100_offsetBlur" operator="in" result="pf_100_dropShadow"/>
   <feBlend xmlns="http://www.w3.org/2000/svg" in="SourceGraphic" in2="pf_100_dropShadow" mode="normal"/>
  </filter>
 </defs>
 <g opacity=".4">
  <line x1="250.324" x2="172.926" y1="163.827" y2="240.285"/>
 </g>
 <g>
  <path fill="#665c54" d="M 64.581 48.457 L 44.848 100.457 L 40 100.457 L 40 104.457 L 54 104.457 L 54 100.457 L 49.518 100.457 L 54.193 88.448 L 77.395 88.448 L 82.065 100.457 L 76.01 100.457 L 76.01 104.457 L 96.093 104.457 L 96.093 100.457 L 90.553 100.457 L 70.813 48.457 L 64.581 48.457 L 64.581 48.457 L 64.581 48.457 Z M 65.794 57.459 L 76.01 84.465 L 55.75 84.465 L 65.794 57.459 L 65.794 57.459 L 65.794 57.459 Z"/>
  <path fill="#ebdbb2" fill-opacity=".996" d="M 104 52.458 L 104 56.458 L 216 56.458 L 216 52.458 L 104 52.458 L 104 52.458 L 104 52.458 Z M 104 68.458 L 104 72.458 L 216 72.458 L 216 68.458 L 104 68.458 L 104 68.458 L 104 68.458 Z M 104 84.383 L 104 88.383 L 216 88.383 L 216 84.383 L 104 84.383 L 104 84.383 L 104 84.383 Z M 104 100.383 L 104 104.383 L 216 104.383 L 216 100.383 L 104 100.383 L 104 100.383 L 104 100.383 Z M 40 116.383 L 40 120.383 L 216 120.458 L 216 116.458 L 40 116.383 L 40 116.383 L 40 116.383 Z M 40 132.383 L 40 136.383 L 216 136.383 L 216 132.383 L 40 132.383 L 40 132.383 L 40 132.383 Z M 40 148.383 L 40 152.383 L 216 152.383 L 216 148.383 L 40 148.383 L 40 148.383 L 40 148.383 Z M 40 164.383 L 40 168.383 L 216 168.458 L 216 164.458 L 40 164.383 L 40 164.383 L 40 164.383 Z M 40 180.383 L 40 184.383 L 216 184.383 L 216 180.383 L 40 180.383 L 40 180.383 L 40 180.383 Z M 40 196.383 L 40 200.383 L 176 200.383 L 176 196.383 L 40 196.383 L 40 196.383 L 40 196.383 Z"/>
  <g filter="url(#ngaZGxfQwfZa50DIurBZwu7oMryH9AdF)">
   <path fill="#888888" d="M 155.47 164.623 L 163.96 156.143 L 175.96 168.143 L 167.47 176.623 L 155.47 164.623 L 155.47 164.623 L 155.47 164.623 Z"/>
   <path fill="#3c3836" d="M 162.06 174.043 L 173.37 162.723 L 204.87 194.223 L 193.56 205.543 L 162.06 174.043 L 162.06 174.043 L 162.06 174.043 Z"/>
   <path fill="#665c54" fill-rule="evenodd" d="M 51.87 116.383 C 51.87 107.833 53.58 99.363 56.91 91.483 C 60.13 83.883 64.79 76.973 70.63 71.133 C 76.46 65.293 83.37 60.643 90.97 57.413 C 98.85 54.093 107.32 52.373 115.87 52.383 C 124.43 52.373 132.9 54.093 140.78 57.413 C 148.38 60.643 155.29 65.293 161.12 71.133 C 166.96 76.973 171.62 83.883 174.84 91.483 C 178.17 99.363 179.88 107.833 179.87 116.383 C 179.88 124.933 178.17 133.403 174.84 141.283 C 171.62 148.883 166.96 155.793 161.12 161.633 C 155.29 167.473 148.38 172.123 140.78 175.353 C 132.9 178.673 124.43 180.393 115.87 180.383 C 107.32 180.393 98.85 178.673 90.97 175.353 C 83.37 172.123 76.46 167.473 70.63 161.633 C 64.79 155.793 60.13 148.883 56.91 141.283 C 53.58 133.403 51.87 124.933 51.87 116.383 Z M 60.01 116.383 C 60 108.913 61.5 101.523 64.4 94.643 C 67.21 88.013 71.28 81.983 76.38 76.893 C 81.47 71.793 87.51 67.723 94.14 64.913 C 101.02 62.003 108.41 60.513 115.87 60.523 C 123.34 60.513 130.73 62.003 137.61 64.913 C 144.24 67.723 150.28 71.793 155.37 76.893 C 160.47 81.983 164.54 88.013 167.35 94.653 C 170.25 101.523 171.75 108.913 171.74 116.383 C 171.75 123.853 170.25 131.243 167.35 138.113 C 164.54 144.753 160.47 150.783 155.37 155.873 C 150.28 160.973 144.24 165.043 137.61 167.853 C 130.73 170.763 123.34 172.253 115.87 172.243 C 108.41 172.253 101.02 170.763 94.14 167.853 C 87.51 165.043 81.47 160.973 76.38 155.873 C 71.28 150.783 67.21 144.753 64.4 138.113 C 61.5 131.243 60 123.853 60.01 116.383 Z"/>
  </g>
  <defs>
   <filter id="ngaZGxfQwfZa50DIurBZwu7oMryH9AdF" width="400%" height="400%" x="-200%" y="-200%" color-interpolation-filters="sRGB" filterUnits="objectBoundingBox">
    <feGaussianBlur xmlns="http://www.w3.org/2000/svg" in="SourceGraphic" stdDeviation="0"/>
    <feOffset xmlns="http://www.w3.org/2000/svg" dx="0" dy="4" result="pf_100_offsetBlur"/>
    <feFlood xmlns="http://www.w3.org/2000/svg" flood-opacity=".2"/>
    <feComposite xmlns="http://www.w3.org/2000/svg" in2="pf_100_offsetBlur" operator="in" result="pf_100_dropShadow"/>
    <feBlend xmlns="http://www.w3.org/2000/svg" in="SourceGraphic" in2="pf_100_dropShadow" mode="normal"/>
   </filter>
  </defs>
  <g>
   <path fill="#888888" d="M 155.47 164.623 L 163.96 156.143 L 175.96 168.143 L 167.47 176.623 L 155.47 164.623 L 155.47 164.623 L 155.47 164.623 Z"/>
   <path fill="#3c3836" d="M 162.06 174.043 L 173.37 162.723 L 204.87 194.223 L 193.56 205.543 L 162.06 174.043 L 162.06 174.043 L 162.06 174.043 Z"/>
   <circle fill="#ebdbb2" fill-opacity=".543" cx="115.875" cy="116.384" r="59.932" vector-effect="non-scaling-stroke"/>
   <path fill="#665c54" fill-rule="evenodd" d="M 51.87 116.383 C 51.87 107.833 53.58 99.363 56.91 91.483 C 60.13 83.883 64.79 76.973 70.63 71.133 C 76.46 65.293 83.37 60.643 90.97 57.413 C 98.85 54.093 107.32 52.373 115.87 52.383 C 124.43 52.373 132.9 54.093 140.78 57.413 C 148.38 60.643 155.29 65.293 161.12 71.133 C 166.96 76.973 171.62 83.883 174.84 91.483 C 178.17 99.363 179.88 107.833 179.87 116.383 C 179.88 124.933 178.17 133.403 174.84 141.283 C 171.62 148.883 166.96 155.793 161.12 161.633 C 155.29 167.473 148.38 172.123 140.78 175.353 C 132.9 178.673 124.43 180.393 115.87 180.383 C 107.32 180.393 98.85 178.673 90.97 175.353 C 83.37 172.123 76.46 167.473 70.63 161.633 C 64.79 155.793 60.13 148.883 56.91 141.283 C 53.58 133.403 51.87 124.933 51.87 116.383 Z M 60.01 116.383 C 60 108.913 61.5 101.523 64.4 94.643 C 67.21 88.013 71.28 81.983 76.38 76.893 C 81.47 71.793 87.51 67.723 94.14 64.913 C 101.02 62.003 108.41 60.513 115.87 60.523 C 123.34 60.513 130.73 62.003 137.61 64.913 C 144.24 67.723 150.28 71.793 155.37 76.893 C 160.47 81.983 164.54 88.013 167.35 94.653 C 170.25 101.523 171.75 108.913 171.74 116.383 C 171.75 123.853 170.25 131.243 167.35 138.113 C 164.54 144.753 160.47 150.783 155.37 155.873 C 150.28 160.973 144.24 165.043 137.61 167.853 C 130.73 170.763 123.34 172.253 115.87 172.243 C 108.41 172.253 101.02 170.763 94.14 167.853 C 87.51 165.043 81.47 160.973 76.38 155.873 C 71.28 150.783 67.21 144.753 64.4 138.113 C 61.5 131.243 60 123.853 60.01 116.383 Z"/>
  </g>
 </g>
 <g opacity=".4">
  <linearGradient id="_lgradient_157" x1=".517" x2=".517" y1="0" y2="1" gradientTransform="matrix(244.65,0,0,228.34,5.68,11.95)" gradientUnits="userSpaceOnUse">
   <stop offset="0%" style="stop-color:#ebdbb2"/>
   <stop offset="12.5%" stop-opacity=".098" style="stop-color:#ebdbb2"/>
   <stop offset="92.5%" stop-opacity=".098" style="stop-color:#282828"/>
   <stop offset="100%" stop-opacity=".498" style="stop-color:#282828"/>
  </linearGradient>
  <path fill="url(#_lgradient_157)" fill-rule="evenodd" d="M 165.06803 11.951234 C 169.395994 11.941409 173.723944 11.990533 178.051908 12.088781 C 181.927398 12.167379 185.802873 12.31475 189.678362 12.540721 C 193.1309 12.737216 196.583423 13.022134 200.026115 13.395476 C 203.085193 13.729518 206.144271 14.181458 209.173842 14.741469 C 211.888645 15.242533 214.57394 15.881143 217.219897 16.6573 C 219.619947 17.354858 221.970814 18.219439 224.242988 19.241215 C 226.357793 20.184394 228.384061 21.304417 230.302129 22.591462 C 232.141505 23.829383 233.862851 25.244151 235.436659 26.80629 C 237.000621 28.378252 238.417046 30.087764 239.656409 31.924995 C 240.944972 33.840824 242.066305 35.864728 243.020409 37.967229 C 244.043389 40.246576 244.908985 42.584873 245.617197 44.972292 C 246.394255 47.615155 247.033606 50.297317 247.535265 53.008956 C 248.095924 56.034984 248.548399 59.080665 248.882828 62.13617 C 249.256611 65.574836 249.541856 69.013506 249.738578 72.462003 C 249.964823 76.323139 250.112361 80.194101 250.200884 84.055237 C 250.289421 88.378131 250.338591 92.701032 250.32876 97.014106 L 250.32876 155.225886 C 250.338591 159.54878 250.289421 163.861854 250.200884 168.184747 C 250.112361 172.05571 249.964823 175.916853 249.738578 179.777981 C 249.541856 183.226485 249.256611 186.674975 248.882828 190.103826 C 248.548399 193.15933 248.095924 196.214835 247.535265 199.240851 C 247.033606 201.942664 246.394255 204.624837 245.617197 207.267703 C 244.908985 209.655115 244.043389 212.003235 243.020409 214.272755 C 242.066305 216.38509 240.944972 218.399156 239.656409 220.314999 C 238.417046 222.152226 237.000621 223.871561 235.436659 225.433697 C 233.862851 226.995832 232.141505 228.410601 230.302129 229.648532 C 228.384061 230.935575 226.357793 232.055598 224.242988 232.998768 C 221.970814 234.020552 219.619947 234.885137 217.219897 235.592507 C 214.57394 236.368672 211.888645 237.007276 209.173842 237.498515 C 206.144271 238.068354 203.085193 238.510465 200.026115 238.844519 C 196.583423 239.21785 193.1309 239.502777 189.678362 239.699269 C 185.802873 239.925235 181.927398 240.072615 178.051908 240.161035 C 173.723944 240.249454 169.395994 240.298581 165.06803 240.288762 L 90.941963 240.288762 C 86.614006 240.298581 82.286049 240.249454 77.9581 240.161035 C 74.08261 240.072615 70.20712 239.925235 66.331638 239.699269 C 62.879108 239.502777 59.426578 239.21785 55.983886 238.844519 C 52.924808 238.510465 49.865733 238.068354 46.836162 237.498515 C 44.121356 237.007276 41.436057 236.368672 38.7901 235.592507 C 36.390053 234.885137 34.039187 234.020552 31.767009 232.998768 C 29.652213 232.055598 27.625943 230.935575 25.707871 229.648532 C 23.868489 228.410601 22.147143 226.995832 20.573343 225.433697 C 19.009377 223.871561 17.592955 222.152226 16.353586 220.314999 C 15.065036 218.399156 13.943701 216.38509 12.989584 214.272755 C 11.966612 212.003235 11.101021 209.655115 10.392811 207.267703 C 9.615746 204.624837 8.976389 201.942664 8.47474 199.240851 C 7.914072 196.214835 7.461604 193.15933 7.127172 190.103826 C 6.753394 186.674975 6.468142 183.226485 6.271417 179.777981 C 6.045183 175.916853 5.897639 172.05571 5.809112 168.184747 C 5.720586 163.861854 5.671405 159.54878 5.681241 155.225886 L 5.681241 97.014106 C 5.671405 92.701032 5.720586 88.378131 5.809112 84.055237 C 5.897639 80.194101 6.045183 76.323139 6.271417 72.462003 C 6.468142 69.013506 6.753394 65.574836 7.127172 62.13617 C 7.461604 59.080665 7.914072 56.034984 8.47474 53.008956 C 8.976389 50.297317 9.615746 47.615155 10.392811 44.972292 C 11.101021 42.584873 11.966612 40.246576 12.989584 37.967229 C 13.943701 35.864728 15.065036 33.840824 16.353586 31.924995 C 17.592955 30.087764 19.009377 28.378252 20.573343 26.80629 C 22.147143 25.244151 23.868489 23.829383 25.707871 22.591462 C 27.625943 21.304417 29.652213 20.184394 31.767009 19.241215 C 34.039187 18.219439 36.390053 17.354858 38.7901 16.6573 C 41.436057 15.881143 44.121356 15.242533 46.836162 14.741469 C 49.865733 14.181458 52.924808 13.729518 55.983886 13.395476 C 59.426578 13.022134 62.879108 12.737216 66.331638 12.540721 C 70.20712 12.31475 74.08261 12.167379 77.9581 12.088781 C 82.286049 11.990533 86.614006 11.941409 90.941963 11.951234 L 165.06803 11.951234 Z M 165.077876 15.959741 C 169.376317 15.949916 173.674759 15.99904 177.973216 16.087463 C 181.799522 16.175886 185.625827 16.323257 189.452133 16.539402 C 192.835809 16.735898 196.219486 17.010992 199.583486 17.384332 C 202.554026 17.698726 205.514751 18.131016 208.445953 18.681203 C 211.023049 19.152792 213.580483 19.761928 216.098564 20.498786 C 218.321569 21.147221 220.495374 21.952852 222.600334 22.896029 C 224.508571 23.750785 226.338116 24.762737 228.069293 25.922059 C 229.692286 27.012609 231.207063 28.260355 232.59398 29.645648 C 233.980897 31.030941 235.230091 32.543956 236.331763 34.165043 C 237.492434 35.894202 238.505568 37.711787 239.361333 39.607968 C 240.305606 41.720292 241.112187 43.891565 241.761369 46.102139 C 242.508934 48.617282 243.108947 51.161898 243.590914 53.735987 C 244.131912 56.663768 244.564709 59.6112 244.889308 62.578282 C 245.263091 65.938355 245.538505 69.308252 245.735227 72.687976 C 245.951626 76.509812 246.10901 80.321821 246.187687 84.143656 C 246.276225 88.437084 246.325394 92.720685 246.325394 97.014106 C 246.325394 97.014106 246.325394 97.014106 246.325394 97.014106 L 246.325394 155.225886 C 246.325394 155.225886 246.325394 155.225886 246.325394 155.225886 C 246.325394 159.519306 246.276225 163.802907 246.187687 168.096328 C 246.10901 171.918164 245.951626 175.739999 245.735227 179.552015 C 245.538505 182.931739 245.263091 186.301629 244.889308 189.671533 C 244.564709 192.628784 244.131912 195.576216 243.590914 198.503994 C 243.108947 201.078094 242.508934 203.622706 241.761369 206.137845 C 241.112187 208.358253 240.305606 210.5197 239.361333 212.63202 C 238.505568 214.528209 237.492434 216.355617 236.331763 218.074952 C 235.230091 219.705853 233.980897 221.218876 232.59398 222.604172 C 231.207063 223.979634 229.692286 225.227385 228.069293 226.317935 C 226.338116 227.477251 224.508571 228.489201 222.600334 229.343951 C 220.495374 230.296956 218.321569 231.092775 216.098564 231.741198 C 213.580483 232.478056 211.023049 233.087202 208.445953 233.558787 C 205.514751 234.108972 202.554026 234.541264 199.583486 234.865483 C 196.219486 235.228995 192.835809 235.513922 189.452133 235.70058 C 185.625827 235.916726 181.799522 236.073926 177.973216 236.152526 C 173.674759 236.25078 169.376317 236.290072 165.077876 236.290072 C 165.077876 236.290072 165.077876 236.290072 165.06803 236.290072 L 90.941963 236.290072 C 90.932125 236.290072 90.932125 236.290072 90.932125 236.290072 C 86.633683 236.290072 82.335234 236.25078 78.036784 236.152526 C 74.210479 236.073926 70.384173 235.916726 66.557868 235.70058 C 63.174195 235.513922 59.790522 235.228995 56.426518 234.865483 C 53.455967 234.541264 50.495253 234.108972 47.564048 233.558787 C 44.986944 233.087202 42.429517 232.478056 39.911433 231.741198 C 37.688439 231.092775 35.514626 230.296956 33.409665 229.343951 C 31.501429 228.489201 29.671886 227.477251 27.940703 226.317935 C 26.31772 225.227385 24.802935 223.979634 23.416022 222.604172 C 22.029109 221.218876 20.779904 219.705853 19.678243 218.074952 C 18.517564 216.355617 17.504428 214.528209 16.648674 212.63202 C 15.704392 210.5197 14.897819 208.358253 14.248626 206.137845 C 13.50107 203.622706 12.901057 201.078094 12.419081 198.503994 C 11.878086 195.576216 11.445291 192.628784 11.120694 189.671533 C 10.746916 186.301629 10.471501 182.931739 10.274776 179.552015 C 10.058378 175.739999 9.900997 171.918164 9.822307 168.096328 C 9.733781 163.802907 9.6846 159.519306 9.6846 155.225886 C 9.6846 155.225886 9.6846 155.225886 9.6846 155.225886 L 9.6846 97.014106 C 9.6846 97.014106 9.6846 97.014106 9.6846 97.014106 C 9.6846 92.720685 9.733781 88.437084 9.822307 84.143656 C 9.900997 80.321821 10.058378 76.509812 10.274776 72.687976 C 10.471501 69.308252 10.746916 65.938355 11.120694 62.578282 C 11.445291 59.6112 11.878086 56.663768 12.419081 53.735987 C 12.901057 51.161898 13.50107 48.617282 14.248626 46.102139 C 14.897819 43.891565 15.704392 41.720292 16.648674 39.607968 C 17.504428 37.711787 18.517564 35.894202 19.678243 34.165043 C 20.779904 32.543956 22.029109 31.030941 23.416022 29.645648 C 24.802935 28.260355 26.31772 27.012609 27.940703 25.922059 C 29.671886 24.762737 31.501429 23.750785 33.409665 22.896029 C 35.514626 21.952852 37.688439 21.147221 39.911433 20.498786 C 42.429517 19.761928 44.986944 19.152792 47.564048 18.681203 C 50.495253 18.131016 53.455967 17.698726 56.426518 17.384332 C 59.790522 17.010992 63.174195 16.735898 66.557868 16.539402 C 70.384173 16.323257 74.210479 16.175886 78.036784 16.087463 C 82.335234 15.99904 86.633683 15.949916 90.932125 15.959741 C 90.932125 15.959741 90.932125 15.959741 90.941963 15.959741 L 165.06803 15.959741 C 165.077876 15.959741 165.077876 15.959741 165.077876 15.959741 Z"/>
 </g>
</svg>

<svg width="256" height="256" style="isolation:isolate" version="1.1" xmlns="http://www.w3.org/2000/svg">
  <linearGradient id="b" x1=".5002" x2=".5002" y2="1" gradientTransform="matrix(244,0,0,228,5.981,12)" gradientUnits="userSpaceOnUse">
    <stop stop-color="#ebdbb2" offset="0"/>
    <stop stop-color="#ebdbb2" offset="1"/>
  </linearGradient>
  <path d="m165 12c72 0 85 15 85 87v56c0 70-13 85-85 85h-74c-72 0-85-15-85-85v-56c0-72 13-87 85-87z" fill="url(#b)"/>
  <g transform="translate(8.793 -1)" style="isolation:isolate">
    <path d="m64.58 48.46-19.73 52h-4.848v4h14v-4h-4.482l4.675-12.01h23.2l4.67 12.01h-6.055v4h20.08v-4h-5.54l-19.74-52zm1.213 9.002 10.22 27.01h-20.26z" fill="#665c54"/>
    <g filter="url(#ngaZGxfQwfZa50DIurBZwu7oMryH9AdF)">
      <path d="m155.5 164.6 8.49-8.48 12 12-8.49 8.48z" fill="#888"/>
      <path d="m162.1 174 11.31-11.32 31.5 31.5-11.31 11.32z" fill="#3c3836"/>
      <path d="m51.87 116.4c0-8.55 1.71-17.02 5.04-24.9 3.22-7.6 7.88-14.51 13.72-20.35 5.83-5.84 12.74-10.49 20.34-13.72 7.88-3.32 16.35-5.04 24.9-5.03 8.56-0.01 17.03 1.71 24.91 5.03 7.6 3.23 14.51 7.88 20.34 13.72 5.84 5.84 10.5 12.75 13.72 20.35 3.33 7.88 5.04 16.35 5.03 24.9 0.01 8.55-1.7 17.02-5.03 24.9-3.22 7.6-7.88 14.51-13.72 20.35-5.83 5.84-12.74 10.49-20.34 13.72-7.88 3.32-16.35 5.04-24.91 5.03-8.55 0.01-17.02-1.71-24.9-5.03-7.6-3.23-14.51-7.88-20.34-13.72-5.84-5.84-10.5-12.75-13.72-20.35-3.33-7.88-5.04-16.35-5.04-24.9zm8.14 0c-0.01-7.47 1.49-14.86 4.39-21.74 2.81-6.63 6.88-12.66 11.98-17.75 5.09-5.1 11.13-9.17 17.76-11.98 6.88-2.91 14.27-4.4 21.73-4.39 7.47-0.01 14.86 1.48 21.74 4.39 6.63 2.81 12.67 6.88 17.76 11.98 5.1 5.09 9.17 11.12 11.98 17.76 2.9 6.87 4.4 14.26 4.39 21.73 0.01 7.47-1.49 14.86-4.39 21.73-2.81 6.64-6.88 12.67-11.98 17.76-5.09 5.1-11.13 9.17-17.76 11.98-6.88 2.91-14.27 4.4-21.74 4.39-7.46 0.01-14.85-1.48-21.73-4.39-6.63-2.81-12.67-6.88-17.76-11.98-5.1-5.09-9.17-11.12-11.98-17.76-2.9-6.87-4.4-14.26-4.39-21.73z" fill="#665c54" fill-rule="evenodd"/>
    </g>
    <path d="m155.5 164.6 8.49-8.48 12 12-8.49 8.48z" fill="#888"/>
    <path d="m162.1 174 11.31-11.32 31.5 31.5-11.31 11.32z" fill="#3c3836"/>
    <circle cx="115.9" cy="116.4" r="59.93" fill="#ebdbb2" fill-opacity=".543" vector-effect="non-scaling-stroke"/>
    <path d="m51.87 116.4c0-8.55 1.71-17.02 5.04-24.9 3.22-7.6 7.88-14.51 13.72-20.35 5.83-5.84 12.74-10.49 20.34-13.72 7.88-3.32 16.35-5.04 24.9-5.03 8.56-0.01 17.03 1.71 24.91 5.03 7.6 3.23 14.51 7.88 20.34 13.72 5.84 5.84 10.5 12.75 13.72 20.35 3.33 7.88 5.04 16.35 5.03 24.9 0.01 8.55-1.7 17.02-5.03 24.9-3.22 7.6-7.88 14.51-13.72 20.35-5.83 5.84-12.74 10.49-20.34 13.72-7.88 3.32-16.35 5.04-24.91 5.03-8.55 0.01-17.02-1.71-24.9-5.03-7.6-3.23-14.51-7.88-20.34-13.72-5.84-5.84-10.5-12.75-13.72-20.35-3.33-7.88-5.04-16.35-5.04-24.9zm8.14 0c-0.01-7.47 1.49-14.86 4.39-21.74 2.81-6.63 6.88-12.66 11.98-17.75 5.09-5.1 11.13-9.17 17.76-11.98 6.88-2.91 14.27-4.4 21.73-4.39 7.47-0.01 14.86 1.48 21.74 4.39 6.63 2.81 12.67 6.88 17.76 11.98 5.1 5.09 9.17 11.12 11.98 17.76 2.9 6.87 4.4 14.26 4.39 21.73 0.01 7.47-1.49 14.86-4.39 21.73-2.81 6.64-6.88 12.67-11.98 17.76-5.09 5.1-11.13 9.17-17.76 11.98-6.88 2.91-14.27 4.4-21.74 4.39-7.46 0.01-14.85-1.48-21.73-4.39-6.63-2.81-12.67-6.88-17.76-11.98-5.1-5.09-9.17-11.12-11.98-17.76-2.9-6.87-4.4-14.26-4.39-21.73z" fill="#665c54" fill-rule="evenodd"/>
  </g>
  <defs>
    <linearGradient id="linearGradient31" x1=".5002" x2=".5002" y2="1" gradientTransform="matrix(244,0,0,228,5.988,12)" gradientUnits="userSpaceOnUse">
      <stop stop-color="#d5c4a1" offset="0"/>
      <stop stop-color="#d5c4a1" stop-opacity=".09804" offset=".1"/>
      <stop stop-color="#282828" stop-opacity=".1" offset=".9"/>
      <stop stop-color="#282828" stop-opacity=".4" offset="1"/>
    </linearGradient>
  </defs>
  <g opacity=".5">
    <path d="m91 12c-72 0-85 15-85 87v56c0 70 13 85 85 85h74c72 0 85-15 85-85v-56c0-72-13-87-85-87zm0 4h74c68 0 80 15 80 83v56c0 66-12 81-80 81h-74c-68 0-80-15-80-81v-56c0-68 12-83 80-83z" fill="url(#linearGradient31)"/>
  </g>
</svg>
